X:1
T:Jubilate - Kent
T:#
%%score 1 2 { ( 3 5 ) | 4 }
L:1/8
Q:1/4=90
M:2/4
K:C
V:1 treble nm="Soprano" snm="S"
V:2 treble nm="Alto" snm="A"
V:3 treble nm="Midi_20"
V:5 treble 
V:4 bass 
V:1
"^Psalm 100""^Jubilate""^James Kent\n(1700-1776)" c4- | c2 d2 | e2 d2 | c2 d2 | e2 d2 | c3 c | %6
w: O|* be|joy- ful,|O be|joy- ful|in the|
 B2 c2- | c2 B2 | c4 | z2!p! d2 | (d>cB>c | d>cd>e |[M:2/4] d>c) B2 | z2 G2 | (G>FE>F | G>FG>A | %16
w: Lord, all|* ye|lands,|be|joy\- * * *||* * ful,|be|joy\- * * *||
 G>F) E2 | z2!f! dd | e2 dd | e2 d2 | c3 c | B2 c2 | (B2 A2) | G4 |{^F} G2 C2 | D2 E2 | (FE DG/F/ | %27
w: * * ful,|O be|joy- ful, be|joy- ful|in the|Lord, all|ye *|lands:|* the|Lord with|glad\- * * * *|
 ED) C z | G2 A2 | (_BA G) (c/B/) | A2 A=B | c>c cG | A2 A2 | d>d dA | (BG) c2 | c2 B2 | c4 || %37
w: * * ness,|serve the|Lord * * with *|glad- ness, and|come be- fore his|pre- sence,|come be- fore his|pre\- * sence|with a|song.|
[K:F][M:3/4]"^Duetto""^Andante"!mf! c4 d2 | c3 B A2 |[M:3/4] (c>B) A2 G2 | F2 z2 z2 | z2 F2 d2 | %42
w: Be ye|sure that the|Lord * he is|God;|it is|
 c2 A2 d2 | c3 B A2 | (A>G) G2 c2 | (d>c) c2 =B2 | c4 z2 | (G>B) B2 A2 | (A>G) G2 z2 | %49
w: he, it is|he that hath|made * us and|not * we our-|selves;|we * are his|peo\- * ple,|
 (c>d) (d>e) e2 | f2 c2 z2 | (c3 B) A2 | (c>B) A2 G2 | F2 F4 ||[K:C][M:2/4] x4 | %55
w: we * are * his|peo- ple,|and * the|sheep * of his|pas- ture.||
[M:2/4]"^Chorus Allegro" c2 cB | c4 | e2 ed | e4 | c2 BA | G2 GF | EC EG | c2 BA | G G2 B | c2 cA | %65
w: O go your|way,|O go your|way,|O go your|way, go your|way in- to his|gates with thanks-|gi- ving, and|in- to his|
 T^F2 G2 | TD3 D | G2 z G | (AG) AB | (c2 d2) | c3 c | cc _BB | A2 z A | (_BA) Bc | (dc) de | %75
w: courts, his|courts with|praise: be|thank\- * ful un-|to *|him, and|speak good of his|name, be|thank\- * ful, be|thank\- * ful un-|
 f2 fd | =B2 G2 | c2 d2 | e4 | f2 d2 | B2 c2 | c2 TB2 | c4 ||[K:Eb][M:3/4] z6 | z6 | z6 | z6 | %87
w: to him, and|speak good|of his|name,|speak good,|speak good|of his|name.|||||
[M:3/4] z6 | z6 | z6 | z6 | z6 |[M:3/4] z6 | z6 | z6 | z6 | z6 | z6 | z6 |[M:3/4] z6 | z6 | z6 | %102
w: |||||||||||||||
 z6 | z6 | z6 |[M:3/4] z6 | z6 | z6 | z6 | z6 |[M:3/4] z6 | z6 | z6 | z6 | z6 || %115
w: |||||||||||||
[K:C][M:2/4]"^Chorus Moderato"[Q:1/4=84] c2 d2 | e2 ce | e2 d2 | %118
w: Glo- ry|be to the|Fa- ther,|
[M:2/4][Q:1/4=84][Q:1/4=84][Q:1/4=84] z2 d2 | c2 B2 | A2 z2 | z2 B2 | c2 B2 | A3 A | G2 z2 | %125
w: and|to the|Son,|and|to the|Ho- ly|Ghost:|
 z2 GG | FF EE | DD cc | BB AA | GG (AB) | c2 d2 | e2 d2 | e2 d2 | c4 | B4 |{^F} G2 DE | F2 F2 | %137
w: as it|was in the be-|gin- ning, as it|was in the be-|gin- ning, is *|now, is|now, and|e- ver|shall|be,|* with- out|end, A-|
 E2 GA | _B2 B2 | A2 A2 | GG A=B | c2 (cB | AB/c/ dc) | B2 z2 | E2 ED | C (D/E/FE) | DD EF | %147
w: men, with- out|end, A-|men, A-|men, world with- out|end, A\- *||men,|world with- out|end, A\- * * *|men, world with- out|
 GG A_B | A2 (dc) | B2 (c2 | B4) | A4 | e2 ed | cA AG | d2 dc | B2 (cd) | (e2 d2) | %157
w: end, world with- out|end, A\- *|men, A\-||men,|world with- out|end, world with- out|end, with- out|end, A\- *|men, *|
[Q:1/4=89] (E[Q:1/4=88]D[Q:1/4=87]F[Q:1/4=86]E |[Q:1/4=85] A[Q:1/4=84]G[Q:1/4=84]B[Q:1/4=83]c | %159
w: A\- * * *||
[Q:1/4=81] B2)[Q:1/4=80] c2 |[Q:1/4=78] (c2[Q:1/4=76] TB2) |[Q:1/4=76] c4 |] %162
w: * men,|A\- *|men.|
V:2
 z4 z4 | z4 | z4 | z4 | z4 | z4 | z4 | z4 | z4 | z4 | z4 | z4 |[M:2/4] z4 | z4 | z4 | z4 | z4 | %17
w: |||||||||||||||||
 z4 | z4 | z4 | z4 | z4 | z4 |[M:2/4] z4 | z4 | z4 | z4 | z4 | z4 | z4 | z4 |[M:2/4][K:treble] z4 | %32
w: |||||||||||||||
 z4 | z4 | z4 | z4 | z4 ||[K:F][M:3/4]!mf! A4 B2 | A3 G F2 |[M:3/4] (A>G) F2 E2 | F2 z2 z2 | %41
w: |||||Be ye|sure that the|Lord * he is|God;|
 z2 F2 B2 | F2 F2 F2 | A3 G F2 | (F>E) E2 E2 | (F>E) E2 D2 | E4 z2 | (E>G) G2 F2 | (F>E) E2 z2 | %49
w: it is|he, it is|he that hath|made * us and|not * we our-|selves;|we * are his|peo\- * ple,|
 (A>B) B2 G2 | A2 A2 z2 | (A3 G) F2 | (A>G) F2 E2 | C2 C4 ||[K:C][M:2/4] x4 |[M:2/4] z4 | z4 | z4 | %58
w: we * are his|peo- ple,|and * the|sheep * of his|pas- ture.|||||
 z4 | z4 | z4 | z4 | z4 |[M:2/4] z4 | z4 | z4 | z4 | z4 | z4 | z4 | z4 |[M:2/4] z4 | z4 | z4 | z4 | %75
w: |||||||||||||||||
 z4 | z4 | z4 | z4 |[M:2/4] z4 | z4 | z4 | z4 ||[K:Eb][M:3/4]"^Andante" C>C C2 C2 | D2 D2 z2 | %85
w: ||||||||For the Lord is|gra- cious,|
 E>E E2 E2 | F2 F2 z2 |[M:3/4] G>G G2 G2 | (GF) F>F FE | (ED) D2 =B,2 | (TC>=B,) C2 D2 | %91
w: for the Lord is|gra- cious,|for the Lord is|gra\- * cious, the Lord is|gra\- * cious, his|mer\- * cy, his|
 (TE>D) D2 G2 | (G>D) D2 E2 | (E=A,) A,A, B,C | (D3 E) DC | G4 ^F2 | G2 G2 z2 | z2 (G,=A,) (B,C) | %98
w: mer\- * cy, his|mer\- * cy, his|mer\- * cy is e- ver-|last\- * ing, is|e- ver-|last- ing:|and * his *|
 D4 D2 | (TDC) C2 F2 | (F2 E2) E2 | (TED) D2 F2 | G4 (=AG) | TG2 ^F=A, DC | (B,=A,) G,D ED | %105
w: truth en-|dur\- * eth, his|truth * en-|dur\- * eth, his|truth en\- *|dur- eth from ge- ne-|ra\- * tion to ge- ne-|
 (CB,) =A,C FE | (DC) B,D ED | (CD) E4 | z2 z{^C} D GF | (TE>D) CE FG | (A6- | AG) G{^C}D GF | %112
w: ra\- * tion, from ge- ne-|ra\- * tion to ge- ne-|ra\- * tion,|* ge- ne-|ra\- * tion to ge- ne-|ra\-|* * tion, * ge- ne-|
 E2 E2 F2 | E2 (TD3 C) | C2 C4 ||[K:C][M:2/4] z4 | z4 | z4 |[M:2/4] z4 | z4 | z4 | z4 | z4 | z4 | %124
w: ra- tion to|ge- ne\- *|ra- tion.||||||||||
 z4 | z4 | z4 | z4 |[M:2/4] z4 | z4 | z4 | z4 | z4 | z4 | z4 | z4 | z4 |[M:2/4] z4 | z4 | z4 | z4 | %141
w: |||||||||||||||||
 z4 | z4 | z4 | z4 |[M:2/4] z4 | z4 | z4 | z4 | z4 | z4 | z4 | z4 |[M:2/4] z4 | z4 | z4 | z4 | z4 | %158
w: |||||||||||||||||
 z4 | z4 | z4 | z4 |] %162
w: ||||
V:3
 [EGc]4- | [EGc]2 [GBd]2 | [Gce]2 [GBd]2 | [Gc]2 [GBd]2 | [Gce]2 [GBd]2 | G2 ^FF | [GB]2 [EGc]2- | %7
 [EGc]2 [DGB]2 | [EGc]4 | z2 [Bd]2 | [Bd]>[Ac][GB]>[Ac] | [Bd]>[Ac][Bd]>[ce] | %12
[M:2/4] [Bd]>[Ac] [GB]2 | z2 [EG]2 | [EG]>[DF][CE]>[DF] | [EG]>[DF][EG]>[FA] | [EG]>[DF] [CE]2 | %17
 z2 [Bd][Bd] | [ce]2 [Bd][Bd] | [ce]2 [Bd]2 | [Gc]3 [Ec] | [DGB]2 [EGc]2 | [DGB]2 [^FA]2 | %23
 [B,DG]4 |{^F} G2 C2 | D2 E2 | FE DG/F/ | ED CF/E/ | G2 [FA]2 | F2 B,2 | [FA]2 [FA][F=B] | %31
 [Gc]>[Gc] [Ec][EG] | [FA]2 [FA]2 | [Ad]>[Ad] [Ad][FA] | BG c2 | [EGc]2 [DGB]2 | [EGc]4 || %37
[K:F][M:3/4]"^Andante" [Ac]4 [Bd]2 | [Ac]3 [GB] F2 |[M:3/4] [Ac]>[GB] [FA]2 [EG]2 | %40
 F2 [A,C]F[B,D]F | [A,C]2 F2 [FBd]2 | [Fc]2 [FA]2 [Fd]2 | [Ac]3 [GB] [FA]2 | %44
 [FA]>[EG] [EG]2 [Ec]2 | [Fd]>[Ec] [Ec]2 [D=B]2 | [Ec]4 z2 | [EG]>[GB] [GB]2 [FA]2 | %48
 [FA]>[EG] [EG]2 z2 | [Ac]>[Bd][Bd]>[Be] [Ge]2 | [Af]2 [Ac]2 z2 | [Ac]3 [GB] [FA]2 | %52
 [Ac]>[GB] [FA]2 [B,EG]2 | [A,CF]2 [A,CF]4 ||[K:C][M:2/4] x4 |[M:2/4] [EGc]2 [EGc][DGB] | [EGc]4 | %57
 [Gce]2 [Gce][GBd] | [Gce]4 | c2 BA | EFEG | ECEG | c2 BA | G G2 B | c2 cA | ^F2 G2 | D3 D | %67
 G2 z G | AGA[FB] | c2 d2 | c3 c | [Fc][Ec][F_B][GB] | [FA]2 z [CFA] | [CE_B][FA][CEB][Fc] | %74
 [Fd][Fc][Fd][Fe] | [Ff]2 [Af][Fd] | [D=B]2 [B,DG]2 | [EGc]2 [GBd]2 | [Gce]4 | .[Adf]2 .[FAd]2 | %80
 .[DFB]2 .[EGc]2 | [EGc]2 [DGB]2 | [EGc]4 ||[K:Eb][M:3/4] [E,G,C]>[E,G,C] [E,G,C]2 [E,G,C]2 | %84
 [CD]2 [=B,D]2 z2 | [CE]>[CE] [CE]2 [CE]2 | [EF]2 [DF]2 z2 |[M:3/4] [EG]>[EG] [EG]2 [EG]2 | %88
 [EG][DF] [DF]>[DF] [DF][CE] | [CE][=B,D] [B,D]2 B,2 | C>=B, C2 [B,D]2 | [CE]>[=B,D] [B,D]2 G2 | %92
 G>D D2 E2 | E=A,A,[F,A,][G,B,][_A,C] | [B,D]3 [CE][B,D][A,C] | [B,G]4 [=A,^F]2 | %96
 [B,G]2 [B,G]2 z2 | z2 G,=A,B,C | [B,D]4 [B,D]2 | [B,D][=A,C] [A,C]2 F2 | F2 E2 [CE]2 | %101
 [CE][B,D] [B,D]2 [B,F]2 | [B,G]4 [E=A][DG] | [DG]2 [D^F]=A,DC | B,=A,G,DED | CB,=A,CFE | %106
 DCB,D[CE][=B,D] | C2 z2 C2 | D2 z DGF | E>DCEFG | A6- | AGGDGF | [CE]2 [CE]2 [DF]2 | [CE]2 D3 C | %114
 C2 C4 ||[K:C][M:2/4] [EGc]2 [GBd]2 | [Gce]2 [Ec][Ge] | [Gce]2 [GBd]2 |[M:2/4] z2 [Gd]2 | %119
 [D^Fc]2 [DGB]2 | [D^FA]2 z2 | z2 [DGB]2 | [EGc]2 [DGB]2 | A3 A | [B,DG]2 z2 | z2 GG | FFEE | %127
 DD[Cc][Cc] | [CB][CB][CA][CA] | [CG][CG]AB | [Ec]2 [GBd]2 | [Gce]2 [GBd]2 | [Gce]2 [Gd]2 | c4 | %134
 [GB]4 | G2 DE | F2 F2 | E2 [EG][FA] | [G_B]2 B2 | [FA]2 [FA]2 | [EG][EG][FA][D=B] | c2 [Fc][GB] | %142
 AB/c/ dc | B2 z2 | [CE]2 [CE][B,D] | [A,C][B,D]/[CE]/ [DF][CE] | [B,D][B,D][CE][DF] | %147
 [EG][EG][FA][G_B] | [FA]2 [Bd][Ac] | [^GB]2 [Ac]2 | B4 | [CEA]4 | e2 ed | [Ac][CA][DA][EG] | %154
 [FAd]2 dc | B2 [Gc][Bd] | [ce]2 [Bd]2 | EDFE | AG[FB][EGc] | [DGB]2 [EGc]2 | [EGc]2 [DGB]2 | %161
 [EGc]4 |] %162
V:4
 [C,,C,]4- | [C,,C,]2 [G,,G,]2 | [C,C]2 [G,,G,]2 | [E,,E,]2 [G,,G,]2 | [C,C]2 [G,,G,]2 | %5
 [A,,A,]3 [A,,A,] | [G,,G,]2 [C,,C,]2 | G,2 G,,2 | C,4 | [G,,G,]4- | [G,,G,]4 | [G,,G,]4 | %12
[M:2/4] [G,,G,]4 | [C,,C,]4 | [C,,C,]4 | [C,,C,]4 | [C,,C,]4 | [G,,G,]4 | [C,,C,]2 [G,,G,]2 | %19
 [C,,C,]2 [G,,G,][F,,F,] | [E,,E,]2 [C,,C,]2 | G,2 C,2 | D,2 D,,2 | G,,4 | z4 | z2{^F,} G,2 | %26
 A,2 B,2 | CB, A, D/ C/ |{^F,} [G,B,]2 C,2 | D,2 E,2 | F,E, D,G,/F,/ | E,2 C,2 | F,2 F,2 | %33
 F,2 F,2 | G,2 E,F, | G,2 G,,2 | C,4 ||[K:F][M:3/4] F,4 C,2 | F,4 F,,2 |[M:3/4] B,,2 C,2 C,,2 | %40
 F,,2 F,2 B,,2 | F,2 F,2 B,2 | A,2 F,2 B,2 | F,4 F,2 | C,4 C,2 | F,2 G,2 G,,2 | C,4 z2 | C,6 | %48
 C,2 CB,A,G, | F,6 | F,4 z2 | F,3 G, A,2 | B,2 C2 C,2 | F,2 F,,4 ||[K:C][M:2/4] x4 | %55
[M:2/4] C,2 C,G, | C,4 | C2 CG, | C,4 | C2 B,A, | G,2 G,F, | E,C,E,G, | C2 B,A, | G, G,2 B, | %64
 C2 CA, | ^F,2 G,2 | D,3 D, | G,2 z2 | z2 z D, | E,D,E,F, | G,F,G,C, | D,C,D,E, | F,2 z F, | %73
 G,F,G,A, | _B,A,B,C | D2 F,2 | G,2 F,2 | E,2 D,2 | C,,4 | .F,2 .F,2 | .G,2 .C,2 | G,2 G,,2 | %82
 C,4 ||[K:Eb][M:3/4] [C,,C,]4 [C,,C,]2 | [G,,G,]3 [G,,G,] [G,,G,]2 | [C,,C,]4 [C,,C,]2 | %86
 [B,,,B,,]3 [B,,,B,,] [B,,,B,,]2 |[M:3/4] [E,,E,]4 [E,,E,]2 | B,3 =B,C^F, | G,2 G,,2 [D,=F,]2 | %90
 [E,G,]2 [D,F,]2 D,2 | G,2 G,,2 [G,=B,]2 | [G,=B,]4 C,2 | [C,^F,]3 [C,E,][B,,D,][A,,C,] | %94
 G,,3 A,,B,,C, | D,4 D,,2 | G,,2 G,,2 z2 | G,,6 | z2{=A,,} B,,C, D,E, | F,2{=E,,} F,,G,, =A,,B,, | %100
 C,2{=B,,} C,D, E,F, | G,4 D,2 | E,4 CB, | [D,B,]2 [D,=A,] z z2 | z2 z{^F,} G, CB, | %105
 =A,G,F,E,D,C, | B,,=A,, G,,2 [G,,G,]2 | [_A,,_A,]4 [^F,,^F,]2 | [G,,G,]2 z2 z2 | C,3{^F,} G, CB, | %110
 A,G,F,E,D,C, | =B,,=A,, G,,2 [G,,G,]2 | [A,,A,]4 [F,,F,]2 | [G,,G,]2 [G,,G,]4 | [C,,C,]6 || %115
[K:C][M:2/4] C,2 G,2 | C2 C,2 | G,2 G,2 |[M:2/4] z2 B,2 | A,2 G,2 | D,2 z2 | z2 G,2 | C,2 G,,2 | %123
 D,2 D,,2 | G,,2 z2 | G,,4 | z2 [C,C][C,C] | [B,,B,][B,,B,][A,,A,][A,,A,] | %128
 [G,,G,][G,,G,][F,,F,][F,,F,] | [E,,E,][E,,E,][D,,D,][D,,D,] | [C,,C,][C,,C,] [G,,,G,,]2 | %131
 [C,,C,]2 [G,,G,]2 | C2 B,2 | A,4 | G,4 | z4 |{^C} D2 A,B, | C2 C,2 |{^F,} G,2 D,E, | C,4- | %140
 [C,C]2 z2 | z CDE | FE DE/F/ | G[K:bass] [G,B,][A,C][B,D] | CC,D,E, | F,E, D,E,/F,/ | G,F,E,D, | %147
 C,2 C,2 | F,2 D,2 | E,2 A,,2 | E,4 | A,,4 | z E,^F,^G, | A,A,B,C | D[D,F,][E,G,][F,A,] | %155
 [G,B,][F,A,][E,G,][D,F,] | [C,E,]2 G,2 | CB,A,G, | F,E,D,C, | G,2 C,2 | G,2 G,,2 | C,4 |] %162
V:5
 x4 | x4 | x4 | x4 | x4 | x4 | x4 | x4 | x4 | x4 | x4 | x4 |[M:2/4] x4 | x4 | x4 | x4 | x4 | x4 | %18
 x4 | x4 | x4 | x4 | x2 DC | x4 | x4 | x4 | x4 | x4 | x4 | x4 | x4 | x4 | x4 | x4 | G2 GA | x4 | %36
 x4 ||[K:F][M:3/4] x6 | x6 |[M:3/4] x6 | x6 | x6 | x6 | x6 | x6 | x6 | x6 | x6 | x6 | x6 | x6 | %51
 x6 | x6 | x6 ||[K:C][M:2/4] x4 |[M:2/4] x4 | x4 | x4 | x4 | x4 | x4 | x4 | x4 | x4 | x4 | x4 | %66
 x4 | x4 | x4 | GFGA | D2 EE | x4 | x4 | x4 | x4 | x4 | x4 | x4 | x4 | x4 | x4 | x4 | x4 || %83
[K:Eb][M:3/4] x6 | x6 | x6 | x6 |[M:3/4] x6 | x6 | x6 | x6 | x6 | x6 | x6 | x6 | x6 | x6 | x6 | %98
 x6 | x2 x2 CD |[I:staff +1] G,4[I:staff -1] x2 | x6 | x6 | x6 | x6 | x6 | x6 | x6 | C2 =B,2 x2 | %109
 x6 | [CE]4 FE | D2 =B, x x2 | x6 | x2 C2 =B,2 | x6 ||[K:C][M:2/4] x4 | x4 | x4 |[M:2/4] x4 | x4 | %120
 x4 | x4 | x4 | G2 ^F2 | x4 | x4 | x4 | x4 | x4 | x2 F2 | x4 | x4 | x4 | G2 ^F2 | x4 | x4 | x4 | %137
 x4 | x2 FG |[I:staff +1] F,G,A,B, |[I:staff -1] x4 | EE x2 | x4 | x4 | x4 | x4 | x4 | x4 | x4 | %149
 x4 | A2 ^G2 | x4 | z ^GAB | x4 | x4 | x4 | x4 | x4 | x4 | x4 | x4 | x4 |] %162

